dist/assets/img/filterUpToDown.svg

<svg width="13" height="9" viewBox="0 0 13 9" fill="none" xmlns="http://www.w3.org/2000/svg">
<path fill-rule="evenodd" clip-rule="evenodd" d="M0.642859 0C0.287818 0 0 0.287818 0 0.642859C0 0.9979 0.287817 1.28572 0.642858 1.28572H12.2143C12.5694 1.28572 12.8572 0.9979 12.8572 0.642859C12.8572 0.287818 12.5694 0 12.2143 0H0.642859ZM2.57202 4.50004C2.57202 4.145 2.85984 3.85718 3.21488 3.85718H12.2149C12.5699 3.85718 12.8578 4.145 12.8578 4.50004C12.8578 4.85508 12.5699 5.14289 12.2149 5.14289H3.21488C2.85984 5.14289 2.57202 4.85508 2.57202 4.50004ZM5.14282 8.35721C5.14282 8.00217 5.43064 7.71436 5.78568 7.71436H12.2143C12.5693 7.71436 12.8571 8.00217 12.8571 8.35721C12.8571 8.71226 12.5693 9.00007 12.2143 9.00007H5.78568C5.43064 9.00007 5.14282 8.71226 5.14282 8.35721Z" fill="#383838"/>
</svg>

<svg width="13" height="9" fill="none" xmlns="http://www.w3.org/2000/svg"><path fill-rule="evenodd" clip-rule="evenodd" d="M.643 0a.643.643 0 0 0 0 1.286h11.571a.643.643 0 1 0 0-1.286H.643Zm1.929 4.5c0-.355.288-.643.643-.643h9a.643.643 0 0 1 0 1.286h-9a.643.643 0 0 1-.643-.643Zm2.57 3.857c0-.355.289-.643.644-.643h6.428a.643.643 0 0 1 0 1.286H5.786a.643.643 0 0 1-.643-.643Z" fill="#383838"/></svg>
